X:1
T:When the Saints
C:Spiritual
Z:Copyright © www.realbook.site
L:1/4
M:2/2
I:linebreak $
K:F
V:1 treble nm=" " snm=" "
V:1
 F A B ||"F" c4- | c F A B | c4- | c F A B |$ c2 A2 | F2 A _A |"C7" G4- | G ^G/ A G/ A |$"F" F3 F | %10
"F7" A2 c2 |"Bb" c B3- |"Bbm" B F A B |$"F" c2 A2 |"C7" F2 G2 |"F" F4- | F z z2 |] %17

